X:675
T: MARIA WOL AN DEM RAE SATT
N: E2068
O: Europa, Mitteleuropa, Deutschland, Westfalen, Eichsfeld
R: geistlich, Marien - Lied, Legende
M: 3/8
L: 1/16
K: G
D2 | G2G2G2 | G4A2 | _B4A2 | G4
_Bc | d3dd2 | d3dc_B | A6 | z4
d2 | A2_B2c2 | d2c2d2 | c_BA4 | z4
d2 | d2G2G2 | c2_B2A2 | G6 | z4

@@@ Tune index: 5359
